X:1
T: Miss Nancy Frowns
C:
R:Jig
Q:180
K:G
M:6/8
L:1/16
|:B2|G2A2G2 G4e2|d2B2G2 A2F2D2|G2A2G2 G4e2|d2B2G2 A4B2|
G2A2G2 G4e2|d2B2G2 A2F2D2|G2A2G2 G4e2|d2B2G2 A4A2|
G2A2B2 d4g2|d2B2G2 A2F2D2|G2A2B2 d4g2|d2B2G2 A4d2|
b2a2g2 a2g2e2|e2g2c2 B2A2G2|A2B2A2 F2E2D2|E2A2F2 G4:|
